assets/Behance Icon.svg

<svg width="48" height="48" viewBox="0 0 48 48" fill="none" xmlns="http://www.w3.org/2000/svg">
<g opacity="0.2">
<path fill-rule="evenodd" clip-rule="evenodd" d="M0 24C0 10.7452 10.7452 0 24 0C37.2548 0 48 10.7452 48 24C48 37.2548 37.2548 48 24 48C10.7452 48 0 37.2548 0 24ZM27.5583 18.6699H34.3376V16.7276H27.5583V18.6699ZM33.74 20.3003C32.9242 19.9395 32.0076 19.7583 30.9886 19.7583C29.2742 19.7583 27.8819 20.2944 26.8057 21.3591C25.7325 22.4267 25.1951 23.9606 25.1951 25.9608C25.1951 28.0932 25.7882 29.6345 26.9818 30.5804C28.1694 31.5278 29.5436 32 31.1015 32C32.9875 32 34.455 31.4387 35.5026 30.3176C36.1739 29.6108 36.5532 28.9143 36.636 28.2313H33.5128C33.3321 28.5698 33.1214 28.8342 32.8821 29.0257C32.4471 29.3776 31.8796 29.5543 31.1858 29.5543C30.5265 29.5543 29.9651 29.4088 29.4985 29.1193C28.7278 28.6545 28.3244 27.8422 28.2732 26.6855H36.7971C36.8106 25.6891 36.7775 24.9229 36.6947 24.3942C36.5532 23.4899 36.2432 22.694 35.76 22.008C35.2302 21.2299 34.5574 20.6597 33.74 20.3003ZM22.9449 17.6631C22.1396 16.5821 20.7744 16.0282 18.8448 16H11.2V31.6065H18.3285C19.1323 31.6065 19.8758 31.5382 20.5637 31.3971C21.2516 31.2546 21.8461 30.9947 22.3504 30.6131C22.7989 30.2805 23.1722 29.8706 23.4702 29.3851C23.9413 28.6515 24.1761 27.8214 24.1761 26.8963C24.1761 25.9994 23.9699 25.2362 23.5605 24.6096C23.1466 23.9814 22.5385 23.5226 21.7317 23.2316C22.2631 22.9643 22.6649 22.6673 22.9389 22.3436C23.4281 21.7645 23.6704 20.9968 23.6704 20.0449C23.6704 19.1198 23.4281 18.3269 22.9449 17.6631Z" fill="#7B7989"/>
<path fill-rule="evenodd" clip-rule="evenodd" d="M14.3534 18.71H17.7972C18.5543 18.71 19.1775 18.7916 19.6682 18.9535C20.2341 19.1881 20.5171 19.6677 20.5171 20.3968C20.5171 21.0502 20.3019 21.5075 19.8744 21.7659C19.4439 22.0243 18.8855 22.1535 18.2006 22.1535H14.3534V18.71ZM29.1643 22.9078C29.5963 22.4683 30.2074 22.2485 30.9901 22.2485C31.7126 22.2485 32.3162 22.4549 32.8069 22.8692C33.2915 23.2865 33.5655 23.8923 33.6212 24.6942H28.3485C28.4599 23.9428 28.7324 23.3474 29.1643 22.9078ZM14.3534 24.7358H18.2488C18.9261 24.7417 19.4544 24.8308 19.8307 25.0001C20.5036 25.3045 20.8377 25.8613 20.8377 26.6751C20.8377 27.6343 20.4915 28.2817 19.7976 28.6233C19.4168 28.8059 18.881 28.898 18.1946 28.898H14.3534V24.7358Z" fill="#7B7989"/>
</g>
</svg>

<svg width="48" height="48" fill="none" xmlns="http://www.w3.org/2000/svg"><g opacity=".2" fill-rule="evenodd" clip-rule="evenodd" fill="#7B7989"><path d="M0 24C0 10.745 10.745 0 24 0s24 10.745 24 24-10.745 24-24 24S0 37.255 0 24Zm27.558-5.33h6.78v-1.942h-6.78v1.942Zm6.182 1.63c-.816-.36-1.732-.542-2.751-.542-1.715 0-3.107.536-4.183 1.601-1.073 1.068-1.61 2.602-1.61 4.602 0 2.132.592 3.674 1.786 4.62 1.187.947 2.562 1.419 4.12 1.419 1.885 0 3.353-.561 4.4-1.682.672-.707 1.051-1.404 1.134-2.087h-3.123c-.18.339-.392.603-.63.795-.436.352-1.003.528-1.697.528-.66 0-1.22-.145-1.688-.435-.77-.465-1.174-1.277-1.225-2.433h8.524c.014-.997-.02-1.763-.102-2.292-.142-.904-.452-1.7-.935-2.386-.53-.778-1.203-1.348-2.02-1.708Zm-10.795-2.637c-.805-1.08-2.17-1.635-4.1-1.663H11.2v15.607h7.128c.804 0 1.548-.069 2.236-.21.688-.142 1.282-.402 1.786-.784a4.338 4.338 0 0 0 1.12-1.228c.471-.734.706-1.564.706-2.489 0-.897-.206-1.66-.615-2.286-.414-.629-1.023-1.087-1.83-1.378.532-.268.934-.565 1.208-.888.49-.58.731-1.347.731-2.3 0-.924-.242-1.717-.725-2.38Z"/><path d="M14.353 18.71h3.444c.757 0 1.38.082 1.871.243.566.235.85.715.85 1.444 0 .653-.216 1.11-.644 1.369-.43.258-.988.388-1.673.388h-3.848V18.71Zm14.811 4.198c.432-.44 1.043-.66 1.826-.66.723 0 1.326.207 1.817.621.484.418.758 1.023.814 1.825h-5.273c.112-.751.384-1.347.816-1.786Zm-14.81 1.828h3.895c.677.006 1.205.095 1.582.264.673.305 1.007.861 1.007 1.675 0 .96-.347 1.607-1.04 1.948-.381.183-.917.275-1.603.275h-3.842v-4.162Z"/></g></svg>
